X:1
T:Silent Night
T:Silent Night
T:Franz Gruber
C:Franz Gruber
%%score 1 2 3 4
L:1/8
Q:1/4=120
M:6/4
K:Bb
V:1 treble nm="Flute" snm="Fl."
V:2 treble transpose=-2 nm="Flugelhorn" snm="Flghn."
V:3 treble transpose=-14 nm="Tenor Saxophone" snm="T. Sax."
V:4 treble transpose=-14 nm="Baritone Horn" snm="Bar. Hn."
V:1
 (f3 g f2) d6 | (f3 g f2) d6 | c'4 c'2 a6 | b4 b2 f6 | g4 g2 (b3 a g2) | (f3 g) f2 d6 | %6
 g4 g2 (b3 a g2) | (f3 g) f2 d6 | c'4 c'2 e'3 c' a2 | (b6 d'4) z2 | b3 f d2 f3 e c2 | d6- d4 z2 |] %12
V:2
[K:C] (E3 F E2) C6 | (E3 F E2) C6 | F4 F2 D6 | E4 E2 E6 | F4 F2 (A3 G F2) | (E3 F) E2 C6 | %6
 C4 F2 (A3 G F2) | (E3 F) E2 C6 | F4 F2 F3 F F2 | (E6 G4) z2 | E4 C2 E3 D B,2 | C6- C4 z2 |] %12
V:3
[K:C] c4 c2 G6 | c4 c2 G6 | B4 B2 G6 | G4 G2 c6 | c4 c2 c4 c2 | c3 c c2 G6 | F4 c2 (A3 B) c2 | %7
 c3 c c2 G6 | B4 B2 d3 B G2 | (G6 c4) z2 | G4 G2 G3 G F2 | E6- E4 z2 |] %12
V:4
[K:C] C4 C2 C6 | C4 C2 C6 | G4 G2 G6 | C4 C2 C6 | F4 F2 F4 F2 | C3 C C2 C6 | F4 F2 F3 F F2 | %7
 C3 C C2 C6 | G4 G2 G3 G G2 | C6- C4 z2 | G4 G2 G,3 G, G,2 | C6- C4 z2 |] %12

